X:69
T:My Jo Janet
C:arr. Carlo Minasi
M:C
L:1/8
B:Chappell's One Hundred Scotch Melodies
B:Arranged for the Concertina by Carlo Minasi
Q:"Allegretto  "1/4=130
Z:Peter Dunk 2012
K:C
!p!([GE][cE])[cE][cE] [BFG,]>c[dB]f|\
([ec]c)([cE][GE]) ([E2C2]G2)|\
([AF]>BcA) [BFG,]>c[dB]f|\
([ec]c)([cE][GE]) ([E2C2]G2)||
%
([cE][AF][GE][EC]) ([FD]>[EC]) [D2B,2]|\
C2 ([G/D/B,/]A/G/F/) [E2C2]G>G|\
([AF]c[GE]E) (F>E) D2|\
(E<C) (F>E) (E2 G)z||

